img/icon/bell.svg

<svg xmlns="http://www.w3.org/2000/svg" width="100" height="100" viewBox="0 0 100 100"><path fill="#EDEDED" d="M50 0c27.614 0 50 22.386 50 50s-22.386 50-50 50-50-22.386-50-50 22.386-50 50-50z"/><path fill="#CCD0D2" d="M51 .025l-1-.025-1 .025v17.975h2v-17.975z"/><path fill="#DBDEE0" d="M49 15l2-1v-2l-2 1v2zm0-4l2-1v-2l-2 1v2zm0-4l2-1v-2l-2 1v2zm0-6v2l2-1v-2l-2 1z"/><path fill="#D9B24C" d="M50 69c3.313 0 6 2.687 6 6s-2.687 6-6 6-6-2.687-6-6 2.687-6 6-6z"/><path fill="#E8C362" d="M50 17c-2.209 0-4 1.791-4 4s1.791 4 4 4 4-1.791 4-4-1.791-4-4-4zm0 6c-1.104 0-2-.896-2-2s.896-2 2-2 2 .896 2 2-.896 2-2 2z"/><path fill="#EFC75E" d="M72 61v-17.191c0-12.045-9.85-21.809-22-21.809s-22 9.764-22 21.809v17.191c-3.866 0-7 3.134-7 7s3.134 7 7 7h44c3.866 0 7-3.134 7-7s-3.134-7-7-7z"/><path fill="#CCA848" d="M55.651 77c.222-.626.349-1.298.349-2h-12c0 .702.127 1.374.349 2h11.302z"/><path fill="#E8C15B" d="M79 68c0-3.866-3.134-7-7-7h-44c-3.866 0-7 3.134-7 7s3.134 7 7 7h44c3.866 0 7-3.134 7-7z"/><path fill="#E1BB58" d="M50 22c-12.15 0-22 9.764-22 21.809v17.191h22v-39z"/></svg>

<svg xmlns="http://www.w3.org/2000/svg" width="100" height="100" viewBox="0 0 100 100"><path fill="#EDEDED" d="M50 0c27.614 0 50 22.386 50 50s-22.386 50-50 50S0 77.614 0 50 22.386 0 50 0z"/><path fill="#CCD0D2" d="M51 .025L50 0l-1 .025V18h2V.025z"/><path fill="#DBDEE0" d="M49 15l2-1v-2l-2 1v2zm0-4l2-1V8l-2 1v2zm0-4l2-1V4l-2 1v2zm0-6v2l2-1V0l-2 1z"/><path fill="#D9B24C" d="M50 69c3.313 0 6 2.687 6 6s-2.687 6-6 6-6-2.687-6-6 2.687-6 6-6z"/><path fill="#E8C362" d="M50 17c-2.21 0-4 1.79-4 4s1.79 4 4 4 4-1.79 4-4-1.79-4-4-4zm0 6c-1.104 0-2-.896-2-2s.896-2 2-2 2 .896 2 2-.896 2-2 2z"/><path fill="#EFC75E" d="M72 61V43.81C72 31.763 62.15 22 50 22s-22 9.764-22 21.81V61c-3.866 0-7 3.134-7 7s3.134 7 7 7h44c3.866 0 7-3.134 7-7s-3.134-7-7-7z"/><path fill="#CCA848" d="M55.65 77c.223-.626.35-1.298.35-2H44c0 .702.127 1.374.35 2h11.3z"/><path fill="#E8C15B" d="M79 68c0-3.866-3.134-7-7-7H28c-3.866 0-7 3.134-7 7s3.134 7 7 7h44c3.866 0 7-3.134 7-7z"/><path fill="#E1BB58" d="M50 22c-12.15 0-22 9.764-22 21.81V61h22V22z"/></svg>
